!!!!SEGMENT: 025_7-12-1a-BH-008.krn
!!!COM: Chopin, Fryderyk
!!!OTL: 8me ETUDE.
!!!OPS: Op. 25
!!!PTL: DOUZE | ETUDES | pour le piano
!!!PPR: Breitkopf & Härtel
!!!PPP: Leipzig
!!!NIFC-rismID: 1001007335
!!!NIFC-shelfmark: PL-Wbfc 3880/n
!!!OMD: Vivace molto legato.
**kern	**fing	**kern	**fing	**dynam
*part1	*	*part1	*	*part1
*staff2	*	*staff1	*	*
*clefF4	*	*clefG2	*	*
*k[b-e-a-d-g-]	*	*k[b-e-a-d-g-]	*	*
*D-:	*	*D-:	*	*
*M2/2	*	*M2/2	*	*
*	*	*I"([half] = 69.) | 8|me | ETUDE.	*	*
*met(c|)	*	*met(c|)	*	*
*MM138	*	*MM138	*	*
=1	=1	=1	=1	=1
*ped	*	*	*	*
*Xtuplet	*	*Xtuplet	*	*
!LO:TX:t=P:mixed beam:problem	!	!	!	!
!	!	!LO:TX:b:i:t=m.v.	!	!
(>12AAA-/L	.	(>12ee-L 12g-	.	.
12A-\ 12C\	.	12ff 12a-	.	.
12c\J 12E-\	.	12ee-J 12g-	.	.
12e-L 12A-	.	12ffL 12a-	.	.
12c 12E-	.	12ee- 12g-	.	.
*Xped	*	*	*	*
12A-J 12C)	.	12ffJ 12a-	.	.
*ped	*	*	*	*
!LO:TX:t=P:mixed beam:problem	!	!	!	!
(>12DD-/L	.	12dd-L 12f	.	.
12A-\ 12D-\	.	12ee- 12g-	.	.
12d-\J 12F\	.	12eenJ 12gn	.	.
12A-L 12D-	.	12gg-XL 12b-	.	.
12d- 12F	.	12ff 12a-	.	.
*Xped	*	*	*	*
12A-J 12D-)	.	12dd-J 12f)	.	.
=2	=2	=2	=2	=2
*ped	*	*	*	*
(>12AA-L	.	(>12ffL 12a-	.	.
12A- 12C	.	12ee- 12g-	.	.
12cJ 12E-	.	12ffJ 12a-	.	.
12e-L 12A-	.	12ee-L 12g-	.	.
12c 12E-	.	12ff 12a-	.	.
*Xped	*	*	*	*
12A-J 12C)	.	12ee-J 12g-	.	.
!LO:TX:t=P:mixed beam:problem	!	!	!	!
*ped	*	*	*	*
(>12DD-/L	.	12dd-L 12f	.	.
12A-\ 12D-\	.	12ee- 12g-	.	.
12d-\J 12F\	.	12eenJ 12gn	.	.
12A-L 12D-	.	12gg-XL 12b-	.	.
12d- 12F	.	12ff 12a-	.	.
*Xped	*	*	*	*
12A-J 12D-)	.	12dd-J 12f)	.	.
=3	=3	=3	=3	=3
*ped	*	*	*	*
!LO:TX:t=P:mixed beam:problem	!	!	!	!
(>12EE-/L	.	(>12ee-L 12gn	.	.
12d-\ 12E-\	.	12ff 12a-	5 1	.
12e-\J 12B-\	.	12ff#XJ 12an	1 3	.
12gnL 12d-	.	12ggnL 12b-	1 4	.
12e- 12B-	.	12aa- 12cc	1 3	.
*Xped	*	*	*	*
12d-J 12G-)	.	12bb-J 12dd-X	1 4	.
*ped	*	*	*	*
12AA-L	.	12bbnL 12ddn	1 4	.
12e- 12A-	.	12ccc 12ee-	1 5	.
*Xped	*	*	*	*
12a-J 12c	.	12cccJ 12een	1 4	.
*ped	*	*	*	*
12D-L	.	12eee-XL 12gg	2 5	.
12d- 12F	.	12ddd- 12ff#	.	.
*Xped	*	*	*	*
12fJ 12A-	.	12aa-J 12cc	.	.
!!LO:LB:g=original
=4	=4	=4	=4	=4
*ped	*	*	*	*
(12E-'L	.	12cccL 12ee-	.	.
12e- 12Gn	.	12bb- 12dd-	.	.
12gnJ 12B-	.	12cccJ 12ee-	.	.
12b-L 12d-	.	12bb-L 12dd-	.	.
12g 12B-	.	12ccc 12ee-	.	.
*Xped	*	*	*	*
12e-J 12G)	.	12bb-J 12dd-	.	.
12a->L 12c>	.	12aa-/L 12cc/	.	.
12f> 12A->	.	12bb- 12dd-	.	.
12g-X>J 12B->	.	12gg-XJ 12b-	.	.
12e->L 12G-X	.	12aa-/L 12cc/	.	.
12f> 12A-	.	12ff 12a-	.	.
12d->J 12F	.	12gg-J 12b-)	.	.
=5	=5	=5	=5	=5
*ped	*	*	*	*
(>12AA-L	.	(>12ee-L 12g-	.	.
12A- 12C	.	12ff 12a-	.	.
12cJ 12E-	.	12ee-J 12g-	.	.
12e-L 12A-	.	12ffL 12a-	.	.
12c 12E-	.	12ee- 12g-	.	.
*Xped	*	*	*	*
12A-J 12C)	.	12ffJ 12a-	.	.
*ped	*	*	*	*
!LO:TX:t=P:mixed beam:problem	!	!	!	!
(>/12DD-L	.	12dd-L 12f	.	.
12A-\ 12D-\	.	12ee- 12g-	.	.
12d-\J 12F\	.	12eenJ 12gn	.	.
12A-L 12D-	.	12gg-XL 12b-	.	.
12d- 12F	.	12ff 12a-	.	.
*Xped	*	*	*	*
12A-J 12D-)	.	12dd-J 12f)	.	.
=6	=6	=6	=6	=6
*ped	*	*	*	*
(>12AA-L	.	(>12ffL 12a-	.	.
12A- 12C	.	12ee- 12g-	.	.
12cJ 12E-	.	12ffJ 12a-	.	.
12e-L 12A-	.	12ee-L 12g-	.	.
12c 12E-	.	12ff 12a-	.	.
*Xped	*	*	*	*
12A-J 12C)	.	12ee-J 12g-	.	.
!LO:TX:t=P:mixed beam:problem	!	!	!	!
*ped	*	*	*	*
(>/12DD-L	.	12dd-L 12f	.	.
12A-\ 12D-\	.	12ee- 12g-	.	.
12d-\J 12F\	.	12eenJ 12gn	.	.
12A-L 12D-	.	12gg-XL 12b-	.	.
12d- 12F	.	12ff 12a-	.	.
*Xped	*	*	*	*
12A-J 12D-)	.	12dd-J 12f)	2	.
!!LO:LB:g=original
=7	=7	=7	=7	=7
*ped	*	*	*	*
(>12GG-'L	.	(>12ee-L 12g-	1 3	.
12d- 12G-	.	12een 12gn	1 4	.
12e-J 12B-	.	12ffJ 12a-	1 5	.
12g-L 12d-	.	12ff#XL 12an	1 3	.
12e- 12B-	.	12ggn 12b-	1 4	.
*Xped	*	*	*	*
12d-J 12G-)	.	12gg#XJ 12bn	1 3	.
*ped	*	*	*	*
(>12GG-'L	.	12aanL 12cc	1 4	<
12e- 12G-	.	12bb- 12dd-	1 3	.
12g-J 12d-	.	12bb-J 12ddn	1 4	.
*clefG2	*	*	*	*
12b-L 12e-	.	12cccL 12ee-X	1 5	.
12g- 12d-	.	12ccc#X 12een	1 3	.
*Xped	*	*	*	*
12e-J 12G-)	.	12dddnJ 12ff#	1 4	.
*clefF4	*	*	*	*
=8	=8	=8	=8	=8
*	*	*ped	*	*
12AA-'L	.	12eee-L 12gg-	1 3	.
*clefG2	*	*	*	*
(<12g- 12A-	.	12bbb- 12ddd-	.	.
12a-J 12e-	.	12gggnJ 12bbn	.	.
12ccL 12g-	.	12aaa-L 12ccc	.	.
12a- 12e-	.	12fff 12aan	.	.
*	*	*Xped	*	*
12g-J 12A-)	.	12ggg-XJ 12bb-X	.	[
*clefF4	*	*	*	*
*	*	*ped	*	*
12D-'L	.	12eeenL 12ggn	.	>
*clefG2	*	*	*	*
(<12f 12A-	.	12fff 12aa-X	.	.
12a-J 12d-X	.	12dddnJ 12ff	.	.
12dd-L 12f	.	12eeeL 12gg-X	.	.
12a- 12d-	.	12ccc 12een	.	.
*	*	*Xped	*	*
12fJ 12A-)	.	12ddd-XJ 12ff)	.	]
*clefF4	*	*	*	*
!!LO:LB:g=original
=9	=9	=9	=9	=9
*	*	*ped	*	*
12BB-'L	.	(>12bb-L 12dd-	.	.
*clefG2	*	*	*	*
(<12d- 12F	.	12eee- 12gg-	.	.
12fJ 12B-	.	12cccJ 12een	.	.
12b-L 12d-	.	12ddd-L 12ff	.	.
12f 12B-	.	12bb- 12dd-	.	.
12d-J 12F)	.	12ddd-J 12ff	.	.
*	*	*Xped	*	*
.	.	.	.	.
*clefF4	*	*	*	*
*ped	*	*	*	*
!LO:TX:t=P:mixed beam:problem	!	!	!	!
12FF'</L	.	12cccL 12ee-X	.	.
(>\12c 12F\	.	12ddd- 12ff	.	.
12f\J 12An\	.	12cccJ 12ee-	.	.
12anL 12c	.	12bb-L 12dd-	.	.
12f 12A	.	12aan 12cc	.	.
*ped	*	*	*	*
12cJ 12F)	.	12cccJ 12ee-)	.	.
=10	=10	=10	=10	=10
*ped	*	*	*	*
12GG-'L	.	(>12bb-L 12dd-	.	.
(>12B- 12D-	.	12ccc 12ee-	.	.
12d-J 12G-	.	12bb-J 12dd-	.	.
12g-L 12B-	.	12aa-L 12cc	.	.
12d- 12G-	.	12gg- 12b-	.	.
*Xped	*	*	*	*
12B-J 12D-)	.	12bb-J 12dd-	.	.
!LO:TX:t=P:mixed beam:problem	!	!	!	!
*ped	*	*	*	*
12DDn'/L	.	12aa-L 12cc-X	.	.
(>\12A- 12D-\	.	12bb- 12dd-	.	.
12c-X\J 12F\	.	12ggnJ 12b-	.	.
12dnL 12A-	.	12aa-L 12cc-	.	.
12c- 12F	.	12ff 12a-	.	.
*Xped	*	*	*	*
12A-J 12D-)	.	12aa-J 12cc-)	.	.
=11	=11	=11	=11	=11
!LO:TX:t=P:mixed beam:problem	!	!	!	!
*ped	*	*	*	*
(>/12EE-L	.	(>12gg-XL 12b-	.	.
12B-\ 12E-\	.	12aa- 12cc	.	.
*Xped	*	*	*	*
12e-\J 12G-\)	.	12gg-J 12b-	.	.
*ped	*	*	*	*
(>12AA-L	.	12ffL 12a-	.	.
12A- 12C	.	12ee- 12g-	.	.
*Xped	*	*	*	*
12cJ 2E-)	.	12gg-J 12b-)	.	.
!LO:TX:t=P:mixed beam:problem	!	!	!	!
*ped	*	*	*	*
(>/12DD-L	.	(>12ffL 12a-	.	.
12A-\ 12D-\	.	12gg- 12b-	.	.
*Xped	*	*	*	*
12d-\J 12F\)	.	12ffJ 12a-	.	.
!LO:TX:t=P:mixed beam:problem	!	!	!	!
*ped	*	*	*	*
(>/12BBB-L	.	12ee-L 12g-	.	.
12F\ 12BB-\	.	12dd- 12f	.	.
*Xped	*	*	*	*
12B-\J 12D-\)	.	12ffJ 12a-)	.	.
!!LO:LB:g=original
=12	=12	=12	=12	=12
*ped	*	*	*	*
(>12EE-L	.	(>12ee-L 12gn	.	.
12E- 12GGn	.	12ff 12a-	.	.
12GnJ 12BB-	.	12ee-J 12g	.	.
12B-L 12E-	.	12dd-L 12f	.	.
12G 12BB-	.	12b-\ 12d-\	.	.
*Xped	*	*	*	*
12E-J 12GG)	.	12ccJ 12e-	.	.
*	*	*ped	*	*
12AAA-'	.	12a-L 12c	.	.
12r	.	12b- 12d-	.	.
12A- 12AA-	.	12a-J 12c	.	.
(>12E-L 12C	.	12b-L 12d-	.	.
12A- 12AA-	.	12a- 12c	.	.
*	*	*Xped	*	*
12E-J 12C	.	12ccJ 12e-)	.	.
=13	=13	=13	=13	=13
12GnL 12AA-	.	(>12b-L 12d-	.	<
12E- 12D-	.	12cc 12e-	.	.
12GJ 12AA-	.	12b-J 12d-	.	.
12E-L 12D-	.	12ccL 12e-	.	.
12G 12AA-	.	12b- 12d-	.	.
12E-J 12D-	.	12ccJ 12e-	.	.
12A-L 12AA-	.	12a-L 12c	.	.
12E- 12C	.	12b- 12d-	.	.
12A-J 12AA-	.	12bnJ 12dn	.	[>
12E-L 12C	.	12dd-XL 12f	.	.
12A- 12AA-	.	12cc 12e-	.	.
12E-J 12C	.	12a-J 12c)	.	]]
=14	=14	=14	=14	=14
12GnL 12AA-	.	(>12ccL 12e-	.	<
12E- 12D-	.	12b- 12d-	.	.
12GJ 12AA-	.	12ccJ 12e-	.	.
12E-L 12D-	.	12b-L 12d-	.	.
12G 12AA-	.	12cc 12e-	.	.
12E-J 12D-	.	12b-J 12d-	.	.
12A-L 12AA-	.	12a-L 12c	.	.
12E- 12C	.	12b- 12d-	.	.
12A-J 12AA-	.	12bnJ 12dn	.	[>
12E-L 12C	.	12dd-XL 12f	.	.
12A- 12AA-	.	12cc 12e-	.	.
12E-J 12C	.	12a-J 12c)	.	]]
!!LO:LB:g=original
=15	=15	=15	=15	=15
12A-L 12AA-	.	(>12ee-L 12g-	.	<
12G- 12E-	.	12ff-X 12a-	.	.
12A-J 12AA-	.	12ee-J 12g-	.	.
12G-L 12E-	.	12ff-L 12a-	.	.
12A- 12AA-	.	12ee- 12g-	.	.
12G-J 12E-	.	12ff-J 12a-	.	.
12A-L 12AA-	.	12dd-\L 12f-X\	.	.
12F-X 12D-	.	12ddn 12fn	.	.
12A-J 12AA-	.	12ee-J 12g-X	.	.
.	.	.	.	[>
12F-L 12D-	.	12gg-L 12b--	.	.
12A- 12AA-	.	12ff-X 12a-	.	.
12F-J 12D-	.	12ddJ 12f-X)	.	]]
=16	=16	=16	=16	=16
12A-L 12AA-	.	(>12ff-XL 12a-	.	<
12G- 12E-	.	12ee- 12g-	.	.
12A-J 12AA-	.	12ff-J 12a-	.	.
12G-L 12E-	.	12ee-L 12g-	.	.
12A- 12AA-	.	12ff- 12a-	.	.
12G-J 12E-	.	12ee-J 12g-	.	.
12A-L 12AA-	.	12dd-\L 12f-X\	.	.
12F-X 12D-	.	12ddn 12fn	.	.
12A-J 12AA-	.	12ee-J 12g-X	.	.
.	.	.	.	[>
12F-L 12D-	.	12gg-XL 12b--	.	.
12A- 12AA-	.	12ff- 12a-	.	.
12F-J 12D-	.	12ddJ 12f-X)	.	]]
=17	=17	=17	=17	=17
12GnL 12AA-	.	(>12ff-XL 12a-	.	.
12E- 12D-	.	12ee- 12gn	.	.
12GJ 12AA-	.	12ggnJ 12b-	.	<
12E-L 12D-	.	12ffnL 12a-	.	.
12G 12AA-	.	12aa- 12cc	.	.
12E-J 12D-	.	12ggJ 12b-	.	.
12GL 12AA-	.	12bb-L 12dd-	.	.
12E- 12D-	.	12aa- 12cc	.	.
12GJ 12AA-	.	12cccJ 12ee-	.	.
12E-L 12D-	.	12bb-L 12dd-	.	.
12G 12AA-	.	12ddd- 12ff	.	.
12E-J 12D-	.	12cccJ 12ee-)	.	.
!!LO:PB:g=original
=18	=18	=18	=18	=18
12GnL 12AA-	.	(>12eee-L 12ggn	.	.
12E- 12D-	.	12ddd- 12ff	.	.
12GJ 12AA-	.	12fffJ 12aa-	.	.
*	*	*8va	*	*
12E-L 12D-	.	12eee-L 12ggn	.	.
12G 12AA-	.	12gggn 12bb-	.	.
12E-J 12D-	.	12fffJ 12aa-	.	.
12GL 12AA-	.	12aaa-L 12ccc	.	.
12E- 12D-	.	12ggg 12bb-	.	.
12GJ 12AA-	.	12bbb-J 12ddd-	.	.
12E-L 12D-	.	12aaa-L 12ccc	.	.
12G 12AA-	.	12cccc 12eee-	.	.
12E-J 12D-	.	12bbb-J 12ddd-	.	.
=19	=19	=19	=19	=19
*ped	*	*	*	*
12A- 12AA-)	.	12aaa-L 12ccc	.	fz
12r	.	12bbb- 12ddd-	.	.
*clefG2	*	*	*	*
(<12ee- 12g-	.	12ggg-XJ 12bb-	.	.
12ffL 12a-	.	12aaa-L 12ccc	.	.
12dd- 12f	.	12fff 12aa-	.	.
12ee-J 12g-	.	12ggg-J 12bb-	.	.
12ccL 12e-	.	12eee-L 12gg-	.	.
12dd- 12f	.	12fff 12aa-	.	.
12b-J 12d-	.	12ddd-J 12ff	.	.
12ccL 12e-	.	12eee-L 12gg-	.	.
12a- 12c	.	12ccc\ 12ee-\	.	.
12b-J 12d-	.	12ddd-J 12ff	.	.
*	*	*X8va	*	*
*clefF4	*	*	*	*
=20	=20	=20	=20	=20
!	!	!LO:TX:a:i:t=loco.	!	!
12g->L 12B->	.	12bb-L 12dd-	.	.
12a-> 12c>	.	12ccc/ 12ee-/	.	.
12f>J 12A-	.	12aa-J 12cc	.	.
!	!	!	!	!LO:HP:b=2
12g->L 12B-	.	12bb-/L 12dd-/	.	>
12e-> 12G-	.	12gg- 12b-	.	.
12f>J 12A-	.	12aa-J 12cc	.	.
12d-L 12F	.	12ff/L 12a-/	.	.
12e- 12G-	.	12gg- 12b-	.	.
12cJ 12E-	.	12ee-J 12g-	.	.
12d-L 12F	.	12ff/L 12a-/	.	.
12B- 12D-	.	12dd- 12f	.	.
*Xped	*	*	*	*
12d-J 12F)	.	12ffJ 12a-)	.	.
!!LO:LB:g=original
=21	=21	=21	=21	=21
12AA-'L	.	(>12ee-^<L 12g-	.	.
(>12A- 12C	.	12ff 12a-	.	.
12cJ 12E-	.	12ee-J 12g-	.	.
12e-L 12A-	.	12ffL 12a-	.	.
12c 12E-	.	12ee- 12g-	.	.
12A-J 12C)	.	12ffJ 12a-	.	.
!LO:TX:t=P:mixed beam:problem	!	!	!	!
12DD-'</L	.	12dd-L 12f	.	.
(>12A-\ 12D-\	.	12ee- 12g-	.	.
12d-\J 12F\	.	12eenJ 12gn	.	.
12A-L 12D-	.	12gg-XL 12b-	.	.
12d- 12F	.	12ff 12a-	.	.
12A-J 12D-)	.	12dd-J 12f)	.	.
=22	=22	=22	=22	=22
(>12AA-'L	.	(>12ffL 12a-	.	.
12A- 12C	.	12ee- 12g-	.	.
12cJ 12E-	.	12ffJ 12a-	.	.
12e-L 12A-	.	12ee-L 12g-	.	.
12c 12E-	.	12ff 12a-	.	.
12A-J 12C)	.	12ee-J 12g-	.	.
!LO:TX:t=P:mixed beam:problem	!	!	!	!
(>12DD-'</L	.	12dd-L 12f	.	.
12A-\ 12D-\	.	12ee- 12g-	.	.
12d-\J 12F\	.	12eenJ 12gn	.	.
12A-L 12D-	.	12gg-XL 12b-	.	.
12d- 12F	.	12ff 12a-	.	.
12A-J 12D-)	.	12dd-J 12f)	.	.
=23	=23	=23	=23	=23
*ped	*	*	*	*
(>12BB-'L	.	(>12ffL 12a-	.	.
12B- 12F	.	12gg-X 12b-	.	.
12dnJ 12A-	.	12ffJ 12a-	.	.
12fL 12B-	.	12gg-L 12b-	.	.
12d 12A-	.	12ff 12a-	.	.
*Xped	*	*	*	*
12B-J 12F)	.	12gg-J 12b-	.	.
*ped	*	*	*	*
(>12E-L	.	12ee-L 12g-	.	.
12B-	.	12ff 12a-	.	.
*Xped	*	*	*	*
12e-J 12G-)	.	12gg-J 12b-	.	.
*ped	*	*	*	*
(12D-'L	.	12aa-L 12cc-X	.	.
12d	.	12bb- 12dd-	.	.
*Xped	*	*	*	*
12fJ 12A-)	.	12aa-J 12cc-)	.	.
!!LO:LB:g=original
=24	=24	=24	=24	=24
*ped	*	*	*	*
(>12G-'L	.	(>12gg-L 12b-	.	.
12d-	.	12aa- 12cc-X	.	.
*Xped	*	*	*	*
12g-J 12B-)	.	12bb-J 12dd-	.	.
*	*	*ped	*	*
!	!	!LO:TX:t=cresc. _:problem:dynamics with extention lines 	!	!LO:HP:i:t=cres
12F'\L	.	12cccnL 12ee-	.	<
*clefG2	*	*	*	*
12f	.	12ddd- 12ff	.	.
*	*	*Xped	*	*
12anJ 12c	.	12cccJ 12ee-	.	.
*	*	*ped	*	*
(<12B-'L	.	12bb-L 12dd-	.	.
12f	.	12ccc 12ee-	.	.
*	*	*Xped	*	*
12b-J 12d-)	.	12ddd-J 12ff	.	.
*	*	*ped	*	*
12B--'L	.	12eee-L 12ggn	.	.
(12e-	.	12fff 12aa-	.	.
12gnJ 12d-	.	12eee-J 12gg	.	[[
=25	=25	=25	=25	=25
4dd-' 4e-)	.	12fffL 12aa-	.	.
.	.	12eee- 12ggn	.	.
.	.	12fffJ 12aa-	.	.
4r	.	12eee-L 12gg	.	.
.	.	12fff 12aa-	.	.
.	.	12eee-J 12gg	.	.
4r	.	12fffL 12aa-	.	.
.	.	12eee- 12gg	.	.
*	*	*Xped	*	*
.	.	12fffJ 12aa-	.	.
*clefF4	*	*	*	*
(<4BB--^>	.	12eee-L 12gg	.	.
.	.	12fff 12aa-	.	.
.	.	12eee-J 12gg	.	.
=26	=26	=26	=26	=26
*	*	*ped	*	*
4AA-')	.	12fffL 12aa-	.	.
.	.	12eee- 12gg-X	.	.
.	.	12fffJ 12aa-	.	.
*clefG2	*	*	*	*
(<12b-L 12g-	.	12eee-L 12gg-	.	.
12a- 12c	.	12fff 12aa-	.	.
12b-J 12g-	.	12eee-J 12gg-	.	.
12a-L 12c	.	12fffL 12aa-	.	.
12b- 12g-	.	12eee- 12gg-	.	.
12a-J 12c	.	12fffJ 12aa-	.	.
!	!	!	!	!LO:HP:i:t=decresc.
12b-L 12g-	.	12eee-L 12gg-	.	>
12a- 12c	.	12fff 12aa-	.	.
12ccJ 12e-	.	12eee-J 12gg-	.	.
!!LO:LB:g=original
=27	=27	=27	=27	=27
8ee-/ 8g-/)	.	12eee-L 12gg-	.	.
.	.	12ggg- 12bb-	.	.
8r	.	.	.	.
*	*	*Xped	*	*
.	.	12fffJ 12aa-	.	.
*clefF4	*	*	*	*
(>12AA-'L	.	12eee-L 12gg-	.	.
*	*	*ped	*	*
12A- 12C	2	12ddd- 12ff	.	.
12cJ 12E-	1	12bb-J 12dd-	.	.
8e- 8G-)	1	12aa-L 12cc	.	.
.	.	12ccc 12ee-	.	.
8r	.	.	.	.
.	.	12bb-J 12dd-	.	.
4r	.	12aa-L 12cc	.	.
.	.	12gg- 12b-	.	.
.	.	12ee-J 12g-	.	.
=28	=28	=28	=28	=28
*	*	*ped	*	*
12DD-'	.	12dd-'\ 12f\)	.	.
*clefG2	*	*	*	*
(<12fL 12A-	.	12r	.	.
12a-J 12d-	.	(>12ddd- 12ff	.	f
12dd-L 12f	.	12eee-L 12gg-	.	.
12a- 12d-	.	12ddd- 12ff	.	.
*	*	*Xped	*	*
12fJ 12A-)	.	12bb-J 12dd-	.	.
*clefF4	*	*	*	*
*	*	*ped	*	*
12D-'L	.	12ccc-XL 12ee-	.	.
*clefG2	*	*	*	*
12f 12A-	.	12ddd- 12ff	.	.
12a-J 12d-	.	12ccc-J 12ee-	.	.
12cc-XL 12f	.	12ddd-L 12ff	.	.
12a- 12d-	.	12ccc- 12ee-	.	.
*	*	*Xped	*	*
12fJ 12A-	.	12ddd-J 12ff	.	.
*clefF4	*	*	*	*
=29	=29	=29	=29	=29
*ped	*	*	*	*
(>12DD-'L	.	12ccc-XL 12ee-	.	.
12d- 12F	.	12ddd- 12ff	.	.
12fJ 12A-	.	12ccc-J 12ee-	.	.
12a-L 12d-	.	12ddd-L 12ff	.	.
12f 12A-	.	12ccc- 12ee-	.	.
*Xped	*	*	*	*
12d-J 12F)	.	12aa-J 12cc-X	.	.
*ped	*	*	*	*
(>12GG-'L	.	12bb-L 12dd-	.	.
12d- 12G-	.	12gg- 12b-	.	.
*Xped	*	*	*	*
12g-J 12B-)	.	12bb-J 12dd-	.	.
*ped	*	*	*	*
(>12AA-'L	.	12aa-L 12ccn	.	.
12A- 12C	.	12ee- 12g-	.	.
*Xped	*	*	*	*
12cJ 12E-)	.	12ffJ 12a-	.	.
!!LO:LB:g=original
=30	=30	=30	=30	=30
*	*	*ped	*	*
12DD-'L	.	12dd-L 12f	.	.
(>12F\ 12AA-\	.	12ee-\ 12g-\	.	.
12A-J 12D-	.	12dd-J 12f	.	.
12d-L 12F	.	12ee-\L 12g-\	.	.
12A- 12D-	.	12dd- 12f	.	.
*	*	*Xped	*	*
12FJ 12AA-)	.	12b-J 12d-	.	.
*	*	*ped	*	*
12DD-'L	.	12cc-XL 12e-	.	.
(>12F\ 12AA-\	.	12dd- 12f	.	.
12A-J 12D-	.	12cc-J 12e-	.	.
12c-XL 12F	.	12dd-L 12f	.	.
12A- 12D-	.	12cc- 12e-	.	.
*	*	*Xped	*	*
12FJ 12AA-)	.	12dd-J 12f	.	.
=31	=31	=31	=31	=31
*	*	*ped	*	*
12DD-'L	.	12cc-XL 12e-	.	.
(<12D- 12FF	.	12dd- 12f	.	.
12FJ 12AA-	.	12cc-J 12e-	.	.
12A-L 12D-	.	12dd-L 12f	.	.
12F 12AA-	.	12cc- 12e-	.	.
*	*	*Xped	*	*
12D-J 12FF)	.	12a-J 12c-X	.	.
*	*	*ped	*	*
12GGG-'L	.	12b-L 12d-	.	.
(<12D-	.	12g- 12B-	.	.
*	*	*Xped	*	*
12G-J 12BB-)	.	12b-J 12d-	.	.
*	*	*ped	*	*
12AAA-'L	.	12a-L 12cn	.	.
(<12AA-	.	12e- 12G-	.	.
*	*	*Xped	*	*
12CJ 12EE-)	.	12fJ 12A-	.	.
=32	=32	=32	=32	=32
8D-\ 8DD-\	.	12d-L 12F<	1 4	.
.	.	12dn 12F#<X	2 5	.
8rGG	.	.	.	.
!	!	!	!	!LO:HP:b=2
.	.	12e-J 12Gn<	1 4	<
4rGG	.	12enL 12G#X<	2 5	.
.	.	12f 12An<	1 5	.
.	.	12f#XJ 12A#X<	2 4	.
(<12A-XL 12AA-X	.	12gnL 12Bn<	1 5	.
12G-X 12E-	.	12a- 12c<	1 4	.
12A-J 12AA-	.	12anJ 12c#X<	2 5	.
12G-L 12E-	.	12b-L 12dn	1 4	.
12A- 12AA-	.	12bn 12d#X	2 5	.
12G-J 12E-	.	12ccJ 12en	1 5	.
!!LO:LB:g=original
=33	=33	=33	=33	=33
12A-L 12AA-	.	12dd-L 12f	.	.
12G- 12E-	.	12ddn 12f#X	.	.
12A-J 12AA-	.	12ee-J 12gn	.	.
12G-L 12E-	.	12eenL 12g#X	.	.
12A- 12AA-	.	12ff 12an	.	.
12G-J 12E-	.	12ff#XJ 12a#X	.	[
!	!	!LO:TX:t=cresc. _:problem:dynamics with extention lines 	!	!LO:HP:i:t=cresc.
.	.	.	.	<
12A-L 12AA-	.	12ggnL 12bn	.	.
12G- 12E-	.	12aa-X 12cc	.	.
12A-J 12AA-	.	12aanJ 12cc#X	.	.
12G-L 12E-	.	12bb-XL 12ddn	.	.
12A- 12AA-	.	12bbn 12dd#X	.	.
12G-J 12E-	.	12cccJ 12een	.	.
=34	=34	=34	=34	=34
*	*	*8va	*	*
12A-L 12AA-	.	12ddd-L 12ff	.	.
12G- 12E-	.	12dddn 12ff#X	.	.
12A-J 12AA-	.	12eee-\J 12ggn\	.	.
12G-L 12E-	.	12eeenL 12gg#X	.	.
12A- 12AA-	.	12fff 12aan	.	.
12G-J 12E-	.	12fff#J 12aa#	.	.
12A-L 12AA-	.	12gggnL 12bbn	.	.
12G- 12E-	.	12aaa-X 12ccc	.	.
12A-J 12AA-	.	12aaanJ 12ccc#X	.	.
12G-L 12E-	.	12bbb-XL 12dddn	.	.
12A- 12AA-	.	12bbbn 12ddd#X	.	.
12G-J 12E-	.	12ccccJ 12eeen	.	[[
*	*	*X8va	*	*
=35	=35	=35	=35	=35
*	*	*	*	*below
8F' 8D-)	.	8ddd-' 8ff)	.	fz
8r	.	8r	.	.
!	!	!LO:TX:a:i:t=loco.	!	!
4g- 4c 4A-	.	(>4aa- 4ee- 4a-	.	ff
4d- 4A- 4D-	.	4ff 4dd- 4a- 4f	.	.
4G- 4D- 4GG-	.	4b- 4g- 4d- 4B-	.	.
=36	=36	=36	=36	=36
!LO:TX:b::B:i:t=FINE.	!	!	!	!
1F;< 1AA- 1DD-:	.	1dd-;) 1a- 1d-	.	.
!!LO:PB:g=original
==	==	==	==	==
*-	*-	*-	*-	*-
!!title: @{OTL}; @{OPS} @{ONM} publisher: @{PPR}
!!!RDF**kern: > = above
!!!RDF**kern: < = below
!!!RDF**dynam: < = "cresc.",fontstyle="italic"
!!!RDF**dynam: > = "dimin.",fontstyle="italic"
!!!ENC: Mateusz Mrugas
!!!END: 2018-10-20
!!!EED: Jędrzej Mróz
!!!EST: revision finished 2018-10-21
!!!EED2: Jędrzej Mróz
!!!EST: revision finished 2019-10-11
!!!rism-genre: Etude
!!!rism-key: D-flat major
!!!rism-opus: op.  25, no. 8
!!!rism-title: Etude in D-flat major op.  25, no. 8
!!!rism-permalink: https://opac.rism.info/search?id=1001007335&View=rism
!!!rism-773a-OPR: 1001007325
!!!rism-parent-permalink: https://opac.rism.info/search?id=1001007325&View=rism
